_includes/icons/ios-mouse.svg

<svg fill="#666" height="50" viewBox="0 0 50 50" width="50" xmlns="http://www.w3.org/2000/svg"><path d="m24.90625-.03125c-.03125.0078125-.0625.0195312-.09375.03125-.011719 0-.019531 0-.03125 0-.03125.0078125-.0625.0195313-.09375.03125-9.785156.167969-17.6875 8.144531-17.6875 17.96875v6.6875c-.058594.195313-.058594.398438 0 .59375v6.71875c0 9.929688 8.070313 18 18 18 9.929688 0 18-8.070312 18-18v-6.8125c.027344-.132812.027344-.273437 0-.40625v-6.78125c0-9.824219-7.902344-17.800781-17.6875-17.96875-.019531-.0117187-.042969-.0234375-.0625-.03125-.019531 0-.042969 0-.0625 0-.089844-.0234375-.1875-.0351563-.28125-.03125zm-.90625 2.09375v21.9375h-15v-6c0-8.507812 6.625-15.417969 15-15.9375zm2 0c8.375.519531 15 7.429688 15 15.9375v6h-15zm-17 23.9375h32v6c0 8.847656-7.152344 16-16 16s-16-7.152344-16-16z"/></svg>

<svg xmlns="http://www.w3.org/2000/svg" viewBox="0 0 50 50" width="50" height="50" fill="#666"><path d="M 24.90625 -0.03125 C 24.875 -0.0234375 24.84375 -0.0117188 24.8125 0 C 24.800781 0 24.792969 0 24.78125 0 C 24.75 0.0078125 24.71875 0.0195313 24.6875 0.03125 C 14.902344 0.199219 7 8.175781 7 18 L 7 24.6875 C 6.941406 24.882813 6.941406 25.085938 7 25.28125 L 7 32 C 7 41.929688 15.070313 50 25 50 C 34.929688 50 43 41.929688 43 32 L 43 25.1875 C 43.027344 25.054688 43.027344 24.914063 43 24.78125 L 43 18 C 43 8.175781 35.097656 0.199219 25.3125 0.03125 C 25.292969 0.0195313 25.269531 0.0078125 25.25 0 C 25.230469 0 25.207031 0 25.1875 0 C 25.097656 -0.0234375 25 -0.0351563 24.90625 -0.03125 Z M 24 2.0625 L 24 24 L 9 24 L 9 18 C 9 9.492188 15.625 2.582031 24 2.0625 Z M 26 2.0625 C 34.375 2.582031 41 9.492188 41 18 L 41 24 L 26 24 Z M 9 26 L 41 26 L 41 32 C 41 40.847656 33.847656 48 25 48 C 16.152344 48 9 40.847656 9 32 Z"/></svg>
